X:480
T: Hatter from Nenagh
S: "The Roche Collection of Traditional Irish Music" [III/28/93]
L: 1/8
M: 6/8
R: jig
K: D
d/B/ | AFF EFD | DFF EFD | DFF AFF | dFF EFA |
BAF EFD | DFF EFA | BdB AFA | DED D2 :|
A | A2A AFA | DFF FED | A2A AFA | BGE E2F |
A2A AFA | DFF FED | B2d AFA | DED D2 :|
